!!!COM: Beethoven, Ludwig van
!!!CDT: 1770///-1827///
!!!OTL: Piano Sonata no. 16 in G major
!!!OPS: 31
!!!ONM: 1
!!!OMV: 1
!!!OMD: Allegro vivace
!!!AGN: Sonata
**kern	**kern	**dynam
*staff2	*staff1	*staff1/2
*Ipiano	*Ipiano	*Ipiano
*>[I,A,A,B]	*>[I,A,A,B]	*>[I,A,A,B]
*>norep[I,A,B]	*>norep[I,A,B]	*>norep[I,A,B]
*>I	*>I	*>I
*clefF4	*clefG2	*clefG2
*k[f#]	*k[f#]	*k[f#]
*G:	*G:	*G:
*M2/4	*M2/4	*M2/4
*MM132	*MM132	*MM132
16r	[16gg	f
=1	=1	=1
4G 4B 4d	4.gg]	.
4r	.	.
.	16ff#LL	.
.	16eeJJ	.
=2	=2	=2
2r	16ddLL	.
.	16dd#	.
.	16ee	.
.	16bJJ	.
.	16ddnLL	.
.	16cc	.
.	16b	.
.	16aJJ	.
=3!|:	=3!|:	=3!|:
*>A	*>A	*>A
2r	4g	.
.	8r	.
.	16r	.
.	[16B [>16d [16g	p
=4	=4	=4
8GG`\ 8G`\	8.B] 8.d] 8.gL]	.
8r	.	.
.	[16B [>16d [16bJk	.
8GG`\ 8G`\	8.B] 8.d] 8.bL]	.
8r	.	.
.	[16B [>16d [16gJk	.
=5	=5	=5
8GG`\ 8G`\	8B] 8d] 8g]	.
8r	8r	.
4r	8r	.
.	16r	.
.	[16B [>16d [16g	.
=6	=6	=6
8GG`\ 8G`\	8.B] 8.d] 8.gL]	.
8r	.	.
.	[16d [16g [16b [16ddJk	.
8GG`\ 8G`\	8.d] 8.g] 8.b] 8.ddL]	.
8r	.	.
.	[16B [>16d [16gJk	.
=7	=7	=7
8GG`\ 8G`\	8B] 8d] 8g]	.
8r	8r	.
4r	8r	.
.	16r	.
.	[16B [16d [16g [16b	f
=8	=8	=8
8GG`\ 8G`\	8.B] 8.d] 8.g] 8.bL]	.
8r	.	.
.	[16g [16b [16ee [16ggJk	.
8EE` 8E`	8.g] 8.b] 8.ee] 8.ggL]	.
8r	.	.
.	[16f# [16a [16dd [16ff#Jk	.
=9	=9	=9
8AA` 8A`	8f#] 8a] 8dd] 8ff#]	.
8r	8r	.
4r	4r	.
=10	=10	=10
8AA 8A	8f#` 8a` 8dd`	p
8r	8r	.
8AAA` 8AA`	8e` 8g` 8a` 8cc#`	.
8r	8r	.
=11	=11	=11
8DD` 8D`	8d` 8f#` 8a` 8dd`	.
8r	8r	.
4r	8r	.
.	16r	.
.	[16ffn	f
=12	=12	=12
4.fn	4.ff]	.
16eLL	16eeLL	.
16dJJ	16ddJJ	.
=13	=13	=13
16cnLL	16ccnLL	.
16c#	16cc#	.
16d	16dd	.
16AJJ	16aJJ	.
16cnLL	16ccnLL<	.
16B-	16b-	.
16A	16a	.
16GJJ	16gJJ	.
=14	=14	=14
4Fn	4fn	.
4r	8r	.
.	16r	.
.	[16A [16c [16f	p
=15	=15	=15
8FFn` 8Fn`	8.A] 8.c] 8.fL]	.
8r	.	.
.	[16A [>16c [16aJk	.
8FF` 8F`	8.A] 8.c] 8.aL]	.
8r	.	.
.	[16A [>16c [16fnJk	.
=16	=16	=16
8FFn` 8Fn`	8A] 8c] 8f]	.
8r	8r	.
4r	8r	.
.	16r	.
.	[16A [>16c [16fn	.
=17	=17	=17
8FFn` 8Fn`	8.A] 8.c] 8.fL]	.
8r	.	.
.	[16c [16fn [16a [16ccJk	.
8FF` 8F`	8.c] 8.f] 8.a] 8.ccL]	.
8r	.	.
.	[16A [>16c [16fJk	.
=18	=18	=18
8FFn` 8Fn`	8A] 8c] 8f]	.
8r	8r	.
4r	8r	.
.	16r	.
.	[16A [16c [16fn [16a	f
=19	=19	=19
8FFn` 8Fn`	8.A] 8.c] 8.f] 8.aL]	.
8r	.	.
.	[16fn [16a [16dd [16ffnJk	.
8DD` 8D`	8.f] 8.a] 8.dd] 8.ffL>]	.
8r	.	.
.	[16e [16g [16cc [16eeJk	.
=20	=20	=20
8GG` 8G`	8e] 8g] 8cc] 8ee]	.
8r	8r	.
4r	4r	.
=21	=21	=21
8GG` 8G`	8e` 8g` 8cc`	p
8r	8r	.
8GGG` 8GG`	8d` 8fn` 8g` 8b`	.
8r	8r	.
=22	=22	=22
8CC` 8C`	8c` 8e` 8g` 8cc`	.
8r	8r	.
4r	8r	.
.	16r	.
.	[16e\ [16g\ [16cc\ [16ee\	f
=23	=23	=23
8C` 8c`	8.e] 8.g] 8.cc] 8.eeL]	.
8r	.	.
.	[16cc [16ee [16aa [16cccJk	.
8AA` 8A`	8.cc] 8.ee] 8.aa] 8.cccL]	.
8r	.	.
.	[16b [16dd [16gg [16bbJk	.
=24	=24	=24
8D` 8d`	8b] 8dd] 8gg] 8bb]	.
8r	8r	.
4r	4r	.
=25	=25	=25
8D` 8d`	8b` 8dd` 8gg`	p
8r	8r	.
8DD` 8D`	8a` 8dd` 8ff#`	.
8r	8r	.
=26	=26	=26
8GG`\ 8G`\	8b` 8dd` 8gg`	.
8r	8r	.
4r	4r	.
=27	=27	=27
8D` 8d`	8b` 8dd` 8gg` 8bb`	.
8r	8r	.
8DD` 8D`	8a` 8dd` 8ff#` 8aa`	.
8r	8r	.
=28	=28	=28
8GG`\ 8G`\	8b` 8dd` 8gg` 8bb`	.
8r	8r	.
4r	4r	.
=29	=29	=29
8D` 8d`	8dd` 8gg` 8bb` 8ddd`	.
8r	8r	.
8DD` 8D`	8dd` 8ff#` 8aa` 8ddd`	.
8r	8r	.
=30	=30	=30
!	!LO:TX:i:t=cresc.	!
8GG`\ 8G`\	16ggLL	<
.	16aa#	.
8r	16bb	.
.	16ff#JJ	.
4r	16aanLL	.
.	16gg	.
.	16ff#	.
.	16eeJJ	.
=31	=31	=31
16dLL	16ddLL	.
16d#	16dd#	.
16e	16ee	.
16BJJ	16bJJ	.
16dnLL	16ddnLL	.
16c	16cc	.
16B	16b	.
16AJJ	16aJJ	.
=32	=32	=32
16GLL	16gLL	.
16A#	16a#	.
16B	16b	.
16F#JJ	16f#JJ	.
16AnLL	16anLL	.
16G	16g	.
16F#	16f#	.
16EJJ	16eJJ	.
=33	=33	=33
16DLL	16dLL	.
16D#	16d#	.
16E	16e	.
16BBJJ	16BJJ	.
16DnLL	16dnLL	.
16C	16c	.
16BB	16B	.
16AAJJ	16AJJ	.
*	*clefF4	*clefF4
=34	=34	=34
16GGLL	16GLL	f
16AA#	16A#	.
16BB	16B	.
16FF#JJ	16F#JJ	.
16AAnLL	16AnLL	.
16GG	16G	.
16FF#	16F#	.
16EEJJ	16EJJ	.
=35	=35	=35
16DDLL	16DLL	.
16DD#	16D#	.
16EE	16E	.
16BBBJJ	16BBJJ	.
16DDnLL	16DnLL	.
16CC	16C	.
16BBB	16BB	.
16AAAJJ	16AAJJ	.
=36	=36	=36
16GGGLL	16GGLL	.
16FFF#	16FF#	.
16GGG	16GG	.
16AAAJJ	16AAJJ	.
16BBB-LL	16BB-LL	.
16BBBn	16BBn	.
16CC	16C	.
16CC#JJ	16C#JJ	.
=37	=37	=37
16DDLL	16DLL	.
16CC#	16C#	.
16DD	16D	.
16EEJJ	16EJJ	.
16FF#LL	16F#LL	.
16DD	16D	.
16EE	16E	.
16FF#JJ	16F#JJ	.
=38	=38	=38
16GGLL	16GLL	.
16FF#	16F#	.
16GG	16G	.
16AAJJ	16AJJ	.
16BB-LL	16B-LL	.
16BBn	16Bn	.
16C	16c	.
16C#JJ	16c#JJ	.
*	*clefG2	*clefG2
=39	=39	=39
16D`LL	16d`LL	.
(16D	(<16d	.
16F#	16f#	.
16AJJ	16aJJ	.
*clefG2	*	*
16d`LL)	16dd`LL)	.
(16d	(16dd	.
16f#	16ff#	.
16aJJ	16aaJJ	.
=40	=40	=40
16dd`LL>)	16ddd`LL)	sf
(16dd	(16ddd	.
16a	16aa	.
16f#JJ	16ff#JJ	.
*clefF4	*	*
16d`LL)	16dd`LL)	.
(16d	(16dd	.
16A	16a	.
16F#JJ	16f#JJ	.
=41	=41	=41
16D`LL)	16d`LL)	.
(16D	(16d	.
16F#	16f#	.
16AJJ	16aJJ	.
*clefG2	*	*
16d`LL)	16dd`LL)	.
(16d	(16dd	.
16f#	16ff#	.
16aJJ	16aaJJ	.
=42	=42	=42
16dd`LL>)	16ddd`LL)	sf
(16dd	(16ddd	.
16a	16aa	.
16f#JJ	16ff#JJ	.
*clefF4	*	*
16d`LL)	16dd`LL)	.
(16d	(16dd	.
16A	16a	.
16F#JJ	16f#JJ	.
=43	=43	=43
16D`LL)	16d`LL)	.
(16d	(16dd	.
16A	16a	.
16F#JJ	16f#JJ	.
*	*clefF4	*clefF4
16D`LL)	16d`LL)	.
(16D	(16d	.
16AA	16A	.
16FF#JJ)	16F#JJ	.
=44	=44	=44
[2DD	[2D)	sf
=45	=45	=45
4..DD;]	4..D;]	.
*	*clefG2	*clefG2
16r	[16gg	f
=46	=46	=46
4G 4B 4d	4.gg]	.
4r	.	.
.	16ff#LL	.
.	16eeJJ	.
=47	=47	=47
2r	16ddLL	.
.	16dd#	.
.	16ee	.
.	16bJJ	.
.	16ddnLL	.
.	16cc	.
.	16b	.
.	16aJJ	.
=48	=48	=48
2r	4g	.
.	8r	.
.	16r	.
.	[16B [>16d [16g	p
=49	=49	=49
8GG`\ 8G`\	8.B] 8.d] 8.gL]	.
8r	.	.
.	[16B [>16d [16bJk	.
8GG`\ 8G`\	8.B] 8.d] 8.bL]	.
8r	.	.
.	[16B [>16d [16gJk	.
=50	=50	=50
8GG`\ 8G`\	8B] 8d] 8g]	.
8r	8r	.
4r	8r	.
.	16r	.
.	[16B [>16d [16g	.
=51	=51	=51
8GG`\ 8G`\	8.B] 8.d] 8.gL]	.
8r	.	.
.	[16d [16g [16b [16ddJk	.
8GG`\ 8G`\	8.d] 8.g] 8.b] 8.ddL]	.
8r	.	.
.	[16B [>16d [16gJk	.
=52	=52	=52
8GG`\ 8G`\	8B] 8d] 8g]	.
8r	8r	.
4r	8r	.
.	16r	.
.	[16B [16d [16g [16b	f
=53	=53	=53
8GG`\ 8G`\	8.B] 8.d] 8.g] 8.bL]	.
8r	.	.
.	[16g [16b [16ee [16ggJk	.
8EE` 8E`	8.g] 8.b] 8.ee] 8.ggL]	.
8r	.	.
.	[16f# [16a# [16cc# [16ff#Jk	.
=54	=54	=54
8FF#` 8F#`	8f#] 8a#] 8cc#] 8ff#]	.
8r	8r	.
4r	4r	.
*clefG2	*	*
=55	=55	=55
8g`	8b` 8ee`	p
8r	8r	.
8g`	8b` 8ee#`	.
8r	8r	.
=56	=56	=56
8f#	8a#` 8ff#`	.
8r	8r	.
4r	8r	.
.	16r	.
.	[16B [16e [16g [16b	f
*clefF4	*	*
=57	=57	=57
8GG` 8G`	8.B] 8.e] 8.g] 8.bL]	.
8r	.	.
.	[16g [16b [16ee [16ggJk	.
8EE` 8E`	8.g] 8.b] 8.ee] 8.ggL]	.
8r	.	.
.	[16f# [16a# [16cc# [16ff#Jk	.
=58	=58	=58
8FF#` 8F#`	8f#] 8a#] 8cc#] 8ff#]	.
8r	8r	.
4r	4r	.
=59	=59	=59
8G`	8e` 8b`	p
8r	8r	.
8G`	8e#` 8b`	.
8r	8r	.
=60	=60	=60
8F#`	8f#` 8a#`	.
8r	8r	.
4r	4r	.
*clefG2	*	*
=61	=61	=61
8g`	8b` 8ee`	.
8r	8r	.
8g`	8b` 8ee#`	.
8r	8r	.
=62	=62	=62
8f#`	8a#` 8ff#`	.
8r	8r	.
4r	4r	.
*clefF4	*	*
=63	=63	=63
8GGG` 8GG`	8B` 8e` 8b`	.
8r	8r	.
8GGG` 8GG`	8B` 8e#` 8b`	.
8r	8r	.
=64	=64	=64
!	!LO:TX:i:t=cresc.	!
8FFF#` 8FF#`	16A# 16f# 16a#LL	.
.	(16f#	.
8r	16e#	.
.	16f#JJ	.
4r	16e#LL	.
.	16f#	.
.	16e#	.
.	16f#JJ)	.
=65	=65	=65
2r	(16e#LL	.
.	16f#	.
.	16e#	.
.	16f#JJ	.
.	16e#LL	.
.	16f#	.
.	16g#	.
.	16f#JJ)	.
=66	=66	=66
8BB	8f#	p
8F# 8B 8d#L	(4dd#	.
8F# 8B 8d#	.	.
8F# 8B 8d#J	8cc#)	.
=67	=67	=67
8BB	8b`	.
8F# 8B 8d#L	(4dd#	.
8F# 8B 8d#	.	.
8F# 8B 8d#J	8b)	.
=68	=68	=68
8FF#	8a#`	.
8F# 8c# 8eL	4ff#	.
8F# 8c# 8e	.	.
8F# 8c# 8eJ	[8ff#	.
=69	=69	=69
8AA#L	(8ff#L]	.
8F# 8c# 8eJ	16gg#L	.
.	16ff#JJ	.
8FF#L	16eeLL	.
.	16dd#	.
8F# 8c# 8eJ	16ee	.
.	16cc#JJ)	.
=70	=70	=70
8BB	8b`	.
8F# 8B 8d#L	(4dd#	.
8F# 8B 8d#	.	.
8F# 8B 8d#J	8cc#)	.
=71	=71	=71
8BB	8b`	.
8F# 8B 8d#L	(4dd#	.
8F# 8B 8d#	.	.
8F# 8B 8d#J	8b)	.
=72	=72	=72
8FF#	(8a#L	.
8F# 8c# 8eL	16cc#L	.
.	16bJJ	.
8F# 8c# 8e	16a#LL<	.
.	16b	.
8F# 8c# 8eJ	16cc#	.
.	16a#JJ)	.
=73	=73	=73
16BBLL	8b`	.
16B	.	.
16An	8r	.
16GnJJ	.	.
16F#LL	4r	.
16E	.	.
16Dn	.	.
16C#JJ	.	.
=74	=74	=74
8BB`	16B 16dnLL	f
.	16f#	.
(4D/	16B 16d	.
.	16f#JJ	.
.	16B 16dLL	.
.	16f#	.
8C#)	16B 16d	.
.	16f#JJ	.
=75	=75	=75
8BB`	16B 16dLL	.
.	16f#	.
(4D/	16B 16d	.
.	16f#JJ	.
.	16B 16dLL	.
.	16f#	.
8BB)	16B 16d	.
.	16f#JJ	.
=76	=76	=76
8AA#`	16c# 16eLL	.
.	16f#	.
4F#z	16c# 16e	.
.	16f#JJ	.
.	16A# 16c#LL	.
.	16f#	.
[8F#	16A# 16c#	.
.	16f#JJ	.
=77	=77	=77
8F#L]	16A# 16c#LL	.
.	16f#	.
(16GL	16A# 16c#	.
16F#JJ	16f#JJ	.
16ELL	16A# 16c#LL	.
16D	16f#	.
16E	16A# 16c#	.
16C#JJ)	16f#JJ	.
=78	=78	=78
8BB`	16B 16dLL	.
.	16f#	.
4D	16B 16d	.
.	16f#JJ	.
.	16B 16e#LL	.
.	16g#	.
8D	16B 16e#	.
.	16g#JJ	.
=79	=79	=79
8C#`L	16en 16gnLL	sf
.	16a	.
(16EL	16e 16g	.
16DJJ	16aJJ	.
16C#LL<	16e 16gLL	.
16D	16a	.
16E	16e 16g	.
16C#JJ)	16aJJ	.
=80	=80	=80
8D`	16d 16f#LL	.
.	16a	.
4F#	16d 16f#	.
.	16aJJ	.
.	16d# 16aLL	.
.	16b#	.
8F#	16d# 16a	.
.	16b#JJ	.
=81	=81	=81
8E#`L	16g# 16bnLL>	sf
.	16cc#	.
(16G#L	16g# 16b	.
16F#JJ	16cc#JJ	.
16E#LL	16g# 16bLL>	.
16F#	16cc#	.
16G#	16g# 16b	.
16E#JJ)	16cc#JJ	.
=82	=82	=82
8F#`	16f# 16aLL	.
.	16cc#	.
4A	16f# 16a	.
.	16cc#JJ	.
.	16f# 16aLL	.
.	16cc#	.
8A	16f# 16a	.
.	16cc#JJ	.
=83	=83	=83
(8A	16f#LL	.
.	16dd#	.
4BB)	16b	.
.	16dd#JJ	.
.	16gLL	.
.	16ee	.
8G	16b	.
.	16eeJJ	.
=84	=84	=84
(8G	16eLL	.
.	16cc#	.
4AA)	16a	.
.	16cc#JJ	.
.	16f#LL>	.
.	16ddn	.
8F#	16a	.
.	16ddJJ	.
=85	=85	=85
(8F#	16dLL	.
.	16b	.
4GG)	16g	.
.	16bJJ	.
.	16eLL	.
.	16cc#	.
8E	16g	.
.	16cc#JJ	.
=86	=86	=86
*^	*	*
(4.E	8EL	16c#LL	.
.	.	16a#	.
.	8FF#J	16f#	.
.	.	16a#JJ	.
.	4GG	16BLL	.
.	.	16b	.
8D)	.	16B	.
.	.	16bJJ	.
=87	=87	=87	=87
(8DL	4EE	16gLL	.
.	.	16gg	.
8C#	.	16g	.
.	.	16ggJJ	.
8BB	4FF#	16c#LL	.
.	.	16cc#	.
8AA#J)	.	16f#	.
.	.	16ff#JJ	.
*v	*v	*	*
=88	=88	=88
8BBB 8BB	8B 8b	.
8B 8dL	4dd	p
8B 8d	.	.
8B 8dJ	8dd	.
=89	=89	=89
8AAn	8cc#	.
8A 8c# 8eL	(16eeLL	.
.	16ddJJ	.
8A 8c# 8e	16cc#LL	.
.	16dd	.
8A 8c# 8eJ	16ee	.
.	16cc#JJ)	.
=90	=90	=90
8D	8dd	.
*clefG2	*	*
8d 8f#L	4ff#	.
8d 8f#	.	.
8d 8f#J	8ff#	.
*clefF4	*	*
=91	=91	=91
8C#	8ee#	.
*clefG2	*	*
8c# 8e# 8g#L	(16gg#LL	.
.	16ff#JJ	.
8c# 8e# 8g#	16ee#LL	.
.	16ff#	.
8c# 8e# 8g#J	16gg#	.
.	16ee#JJ)	.
*clefF4	*	*
=92	=92	=92
8F#	8ff#	.
*clefG2	*	*
8f# 8aL	4aa	.
8f# 8a	.	.
8f# 8aJ	8aa	.
*clefF4	*	*
=93	=93	=93
*	*^	*
!	!LO:TX:i:t=cresc.	!	!
8D#L	[4aa	16r	<
.	.	(16bLL	.
8d# 8f#J	.	16a#	.
.	.	16bJJ)	.
8EL	(16aaLL]	[4b	.
.	16gg	.	.
8e 8gJ	16ff#	.	.
.	16ggJJ)	.	.
=94	=94	=94	=94
8C#L	[4gg	(16bLL]	.
.	.	16an	.
8c# 8eJ	.	16g#	.
.	.	16aJJ)	.
8DnL	(16ggLL]	[4a	.
.	16ff#	.	.
8dn 8f#J	16ee#	.	.
.	16ff#JJ)	.	.
=95	=95	=95	=95
8BBL	[4ff#	(16aLL]	.
.	.	16gn	.
8B 8dJ	.	16f#	.
.	.	16gJJ)	.
8C#L	(16ff#LL]	4g	.
.	16een	.	.
8c# 8eJ	16ff#	.	.
.	[16eeJJ)	.	.
=96	=96	=96	=96
8AA#L	16eeLL]	8f#	f
.	16ee	.	.
8A# 8c#J	16ff#	8re	.
.	16eeJJ	.	.
8BBL	16f#LL	8f#	.
.	16dd	.	.
8B 8dJ	16ee	8re	.
.	16ddJJ	.	.
=97	=97	=97	=97
8EEL	16gLL	8e	.
.	16cc#	.	.
8EJ	16dd	8rc	.
.	16cc#JJ	.	.
8FF#L	16eLL	8c#	.
.	16a#	.	.
8F#J	16b	8rc	.
.	16a#JJ	.	.
=98	=98	=98	=98
*^	*	*	*
8r	4BB	4b	8r	p
8F#L	.	.	8d 8f#L	.
8F#	4rBB	8rdd	8d 8f#	.
8F#J	.	(8dd	8d 8f#J	.
=99	=99	=99	=99	=99
8F#L	2FF#	4.cc#	8e 8f#L	.
8F#	.	.	8e 8f#	.
8F#	.	.	8f#	.
8F#J	.	8a#	8e 8f#J	.
=100	=100	=100	=100	=100
8r	4BB	4b)	8r	<
8F#L	.	.	8d# 8f#L	.
8F#	4rBB	8rdd	8d# 8f#	.
8F#J	.	(8dd#	8d# 8f#J	[
=101	=101	=101	=101	=101
8F#L	2FF#	4.cc#	8e 8f#L	>
8F#	.	.	8e 8f#	.
8F#	.	.	8e 8f#	.
8F#J	.	8a#	8e 8f#J	]
=102	=102	=102	=102	=102
8r	4BB	4b)	8r	pp
8F#L	.	.	8dn 8f#L	.
8F#	4r	8rdd	8d 8f#	.
8F#J	.	(8ddn	8d 8f#J	.
=103	=103	=103	=103	=103
8F#L	2FF#	4.cc#	8e 8f#L	.
8F#	.	.	8e 8f#	.
8F#	.	.	8e 8f#	.
8F#J	.	8a#)	8e 8f#J	.
=104	=104	=104	=104	=104
8F#L	4BB	8bL	8d 8f#L	.
8F#	.	8dd	8d 8f#	.
!	!	!LO:TX:i:t=cresc.	!	!
8F#	4FF#	8cc#	8e 8f#	.
8F#J	.	8a#J	8e 8f#J	.
=105	=105	=105	=105	=105
8F#L	4BB	8bL	8d 8f#L	.
8F#	.	8dd	8d 8f#	.
8F#	4FF#	8cc#	8e 8f#	.
8F#J	.	8a#J	8e 8f#J	.
=106	=106	=106	=106	=106
8F#L	4BB	8bL	8d 8f#L	.
8F#	.	8dd	8d 8f#	.
8F#	4FF#	8cc#	8e 8f#	.
8F#J	.	8a#J	8e 8f#J	.
=107	=107	=107	=107	=107
8F#L	4BB	8bL	8d 8f#L	.
8F#	.	8dd	8d 8f#	.
8F#	4FF#	8cc#	8e 8f#	.
8F#J	.	8a#J	8e 8f#J	.
*v	*v	*	*	*
*	*v	*v	*
=108	=108	=108
4BB 4F#	4d 4f# 4b	p
4r	8r	.
*	*clefF4	*clefF4
.	16r	.
.	[16F# [16B [16d	.
=109	=109	=109
4BBB 4BB	4F#] 4B] 4d]	.
4r	8r	.
.	16r	.
.	[16D [16F# [16B	.
=110	=110	=110
4BBB 4BB	4D] 4F#] 4B]	.
4r	4r	.
=111	=111	=111
8BBB	8BB	.
8r	8r	.
8DD	8D	.
*	*clefG2	*clefG2
8r	16r	.
.	[16gg	f
=112	=112	=112
4GGG` 4GG`	4.gg]	.
4r	.	.
.	16ff#LL	.
.	16eeJJ	.
=113	=113	=113
2r	16ddLL	.
.	16dd#	.
.	16ee	.
.	16bJJ	.
.	16ddnLL	.
.	16ccn	.
.	16b	.
.	16aJJ	.
=114:|!	=114:|!	=114:|!
*>B	*>B	*>B
2r	4g	.
.	8r	.
.	16r	.
.	[16B [>16d [16g	p
=115	=115	=115
8GG`\ 8G`\	8.B] 8.d] 8.gL]	.
8r	.	.
.	[16B [>16d [16bJk	.
8GG`\ 8G`\	8.B'] 8.d'] 8.b'L]	.
8r	.	.
.	[16B [>16d [16gJk	.
=116	=116	=116
8GG`\ 8G`\	8B] 8d] 8g]	.
8r	8r	.
4r	8r	.
.	16r	.
.	[16B [>16d [16g	.
=117	=117	=117
8GG`\ 8G`\	8.B] 8.d] 8.gL]	.
8r	.	.
.	[16d [16g [16b [16ddJk	.
8GG`\ 8G`\	8.d] 8.g] 8.b] 8.ddL]	.
8r	.	.
.	[16B [>16d [16gJk	.
=118	=118	=118
8GG`\ 8G`\	8B] 8d] 8g]	.
8r	8r	.
4r	8r	.
.	16r	.
.	[16G [16g	f
=119	=119	=119
8FFn`\ 8Fn`\	8.G] 8.gL]	.
8r	.	.
.	[16g [16ggJk	.
8F` 8B` 8d`	8.g] 8.ggL]	.
8r	.	.
.	[16G [16gJk	.
=120	=120	=120
8EE-` 8E-`	8.G] 8.gL]	.
8r	.	.
.	[16g [16ggJk	.
8E-` 8G` 8c`	8.g] 8.ggL]	.
8r	.	.
.	[16G [16gJk	.
=121	=121	=121
8DD` 8D`	8.G] 8.gL]	.
8r	.	.
.	[16g [16ggJk	.
8D` 8Fn` 8B`	8.g] 8.ggL]	.
8r	.	.
.	[16G [16gJk	.
=122	=122	=122
8CC` 8EE-` 8GG` 8C`	8G] 8g]	.
8r	8r	.
4r	8r	.
.	16r	.
.	[16cc	p
*clefG2	*	*
=123	=123	=123
8c` 8e-` 8g`	8.ccL]	.
8r	.	.
.	[16ee-Jk	.
8c` 8e-` 8g`	8.ee-L]	.
8r	.	.
.	[16ccJk	.
=124	=124	=124
8c` 8e-` 8g`	8cc]	.
8r	8r	.
4r	8r	.
.	16r	.
.	[16cc	.
=125	=125	=125
8c` 8e-` 8g`	8.ccL]	.
8r	.	.
.	[16cccJk	.
8c` 8e-` 8g`	8.cccL]	.
8r	.	.
.	[16ccJk	.
=126	=126	=126
8c` 8e-` 8g`	8cc]	.
8r	8r	.
4r	8r	.
.	16r	.
.	[16c [16cc	f
*clefF4	*	*
=127	=127	=127
8BB-` 8B-`	8.c] 8.ccL]	.
8r	.	.
.	[16cc [16cccJk	.
*clefG2	*	*
8B-X 8en 8g	8.cc] 8.cccL]	.
8r	.	.
.	[16c [16ccJk	.
*clefF4	*	*
=128	=128	=128
8AA` 8A`	8.c] 8.ccL]	.
8r	.	.
.	[16cc [16cccJk	.
*clefG2	*	*
8A` 8c` 8fn`	8.cc] 8.cccL]	.
8r	.	.
.	[16c [16ccJk	.
*clefF4	*	*
=129	=129	=129
8GG`\ 8G`\	8.c] 8.ccL]	.
8r	.	.
.	[16cc [16cccJk	.
8G` 8B-` 8e`	8.cc] 8.cccL]	.
8r	.	.
.	[16c [16ccJk	.
=130	=130	=130
8FFn` 8Fn`	8.c] 8.ccL]	.
8r	.	.
.	[16cc [16cccJk	.
8F` 8A` 8c`	8.cc] 8.cccL]	.
8r	.	.
.	[16fn [16ffnJk	.
=131	=131	=131
8E-` 8e-`	8.f] 8.ffL]	.
8r	.	.
.	[16ffn [16fffnJk	.
*clefG2	*	*
8e-X` 8a` 8cc`	8.ff] 8.fffL]	.
8r	.	.
.	[16fn [16ffJk	.
=132	=132	=132
*clefF4	*	*
8D` 8d`	8.f] 8.ffL]	.
8r	.	.
.	[16ffn [16fffnJk	.
*clefG2	*	*
8d` 8fn` 8b-`	8.ff] 8.fffL]	.
8r	.	.
.	[16fn [16ffJk	.
*clefF4	*	*
=133	=133	=133
8C` 8c`	8.f] 8.ffL]	.
8r	.	.
.	16ffn [16fffnJk	.
*clefG2	*	*
8c` 8e-` 8a`	8.ff 8.fffL]	.
8r	.	.
.	[16fn [16ffJk	.
*clefF4	*	*
=134	=134	=134
8BB-` 8D` 8Fn` 8B-`	16ff] 16fLL]	.
.	16ccc#	.
8r	16ddd	.
.	16aaJJ	.
4r	16cccnLL	.
.	16bb-	.
.	16aa	.
.	16ggJJ	.
=135	=135	=135
2r	16ffnLL	.
.	16ff#	.
.	16gg	.
.	16ddJJ	.
.	16ffnLL	.
.	16ee-	.
.	16dd	.
.	16ccJJ	.
=136	=136	=136
16B-LL	16b-LL	.
16c#	16cc#	.
16d	16dd	.
16AJJ	16aJJ	.
16cnLL	16ccnLL<	.
16B-X	16b-X	.
16A	16a	.
16GJJ	16gJJ	.
=137	=137	=137
16FnLL	16fnLL	.
16F#	16f#	.
16G	16g	.
16DJJ	16dJJ	.
16FnLL	16fnLL	.
16E-	16e-	.
16D	16d	.
16CJJ	16cJJ	.
*	*clefF4	*clefF4
=138	=138	=138
16BB-LL	16B-LL	.
16C#	16c#	.
16D	16d	.
16AAJJ	16AJJ	.
16CnLL	16cnLL	.
16BB-X	16B-X	.
16AA	16A	.
16GGJJ	16GJJ	.
=139	=139	=139
16FFnLL	16FnLL	.
16GG	16G	.
16AA-	16A-	.
16GGJJ	16GJJ	.
16FFLL	16FLL	.
16EE-	16E-	.
16DD	16D	.
16CCJJ	16CJJ	.
=140	=140	=140
16BBBnLL	8BBn	.
16DD	.	.
16CC	8r	.
16EE-JJ	.	.
*	*clefG2	*clefG2
16DDLL	[4gg	f
16FFn	.	.
16EE-	.	.
16GGJJ	.	.
=141	=141	=141
16FFnLL	4gg]	.
16AA-	.	.
16GG	.	.
16FFJJ	.	.
16EE-LL	4ffnT	.
16DD	.	.
16CC	.	.
16BBBJJ	.	.
=142	=142	=142
8CC	16ee-LL	.
.	16ddd	.
8r	16eee-	.
.	16bbJJ	.
4r	16dddLL	.
.	16ccc	.
.	16bb-	.
.	16aa-JJ	.
=143	=143	=143
2r	16ggLL	.
.	16aa-	.
.	16gg	.
.	16ff#XJJ	.
.	16ggLL	.
.	16ffn	.
.	16ee-	.
.	16ddJJ	.
=144	=144	=144
16cLL	16ccLL	.
16d	16dd	.
16e-	16ee-	.
16BJJ	16bJJ	.
16dLL	16ddLL	.
16c	16cc	.
16B-	16b-	.
16A-JJ	16a-JJ	.
=145	=145	=145
16GLL	16gLL	.
16A-	16a-	.
16G	16g	.
16F#XJJ	16f#XJJ	.
16GLL	16gLL	.
16Fn	16fn	.
16E-	16e-	.
16DJJ	16dJJ	.
=146	=146	=146
16CLL	16cLL	.
16D	16d	.
16E-	16e-	.
16BBJJ	16BJJ	.
16DLL	16dLL	.
16C	16c	.
16BB-	16B-	.
16AA-JJ	16A-JJ	.
*	*clefF4	*clefF4
=147	=147	=147
16GGLL	16GLL	.
16AAn	16An	.
16BB-	16B-	.
16AAJJ	16AJJ	.
16GGLL	16GLL	.
16FFn	16Fn	.
16EEn	16En	.
16DDJJ	16DJJ	.
=148	=148	=148
16CC#LL	8C#	.
16EE	.	.
16DD	8r	.
16FFnJJ	.	.
*	*clefG2	*clefG2
16EELL	[4aa	f
16GG	.	.
16FF	.	.
16AAJJ	.	.
=149	=149	=149
16GGLL	4aa]	.
16BB-	.	.
16AA	.	.
16GGJJ	.	.
16FFnLL	4ggT	.
16EE	.	.
16DD	.	.
16CC#JJ	.	.
=150	=150	=150
8DD	16ffnLL	.
.	16ee	.
8r	16ff	.
.	16cc#JJ	.
4r	16eeLL	.
.	16dd	.
.	16ccn	.
.	16b-JJ	.
=151	=151	=151
2r	16aLL	.
.	16b-	.
.	16a	.
.	16g#JJ	.
.	16aLL	.
.	16g#	.
.	16fn	.
.	16enJJ	.
=152	=152	=152
16DLL>	16dLL	.
16E	16e	.
16Fn	16fn	.
16C#JJ	16c#JJ	.
16ELL	16eLL	.
16D	16d	.
16Cn	16cn	.
16BB-JJ	16B-JJ	.
*	*clefF4	*clefF4
=153	=153	=153
16AALL	16ALL	.
16BB-	16B-	.
16C	16c	.
16BB-JJ	16B-JJ	.
16AALL	16ALL	.
16BB-	16B-	.
16AA	16A	.
16GGJJ	16GJJ	.
=154	=154	=154
16FF#XLL	16F#XLL	.
16AA	16A	.
16GG	16G	.
16BB-JJ	16B-JJ	.
16AALL	16ALL	.
16C	16c	.
16BB-	16B-	.
16DJJ	16dJJ	.
=155	=155	=155
16CLL	16cLL	.
16E-	16e-	.
16D	16d	.
16CJJ	16cJJ	.
16BB-LL	16B-LL	.
16AA	16A	.
16GG	16G	.
16FF#JJ	16F#JJ	.
=156	=156	=156
16GGLL	16GLL	.
16AA	16A	.
16BB-	16B-	.
16AAJJ	16AJJ	.
16GGLL	16GLL	.
16FFn	16Fn	.
16EE-	16E-	.
16DDJJ	16DJJ	.
=157	=157	=157
16CC#LL	16C#LL	.
16DD	16D	.
16EEn	16En	.
16DDJJ	16DJJ	.
16CC#LL	16C#LL	.
16GG	16G	.
16EE	16E	.
16CC#JJ	16C#JJ	.
=158	=158	=158
16DDLL	16DLL	.
16FF#X	16F#X	.
16AA	16A	.
16FF#JJ	16F#JJ	.
16BB-LL	16B-LL	sf
16GG	16G	.
16EE-	16E-	.
16CC#JJ	16C#JJ	.
=159	=159	=159
16DDLL	16DLL	.
16FF#	16F#	.
16AA	16A	.
16FF#JJ	16F#JJ	.
16BB-LL	16B-LL	sf
16GG	16G	.
16EE-	16E-	.
16CC#JJ	16C#JJ	.
=160	=160	=160
16DDLL	16DLL	.
16FF#	16F#	.
16AA	16A	.
16FF#JJ	16F#JJ	.
16BB-LL	16B-LL	sf
16GG	16G	.
16EE-	16E-	.
16CC#JJ	16C#JJ	.
=161	=161	=161
16DDLL	16DLL	.
16FF#	16F#	.
16AA	16A	.
16FF#JJ	16F#JJ	.
16BB-LL	16B-LL	sf
16GG	16G	.
16EE-	16E-	.
16CC#JJ	16C#JJ	.
=162	=162	=162
16DD`LL	16D`LL	.
(16DD	(16D	.
16FF#	16F#	.
16AAJJ	16AJJ	.
*	*clefG2	*clefG2
16D`LL)	16d`LL)	.
!!!ONB: slur missing in LH at this point
16D	(16d	.
16F#	16f#	.
16AJJ	16aJJ	.
*clefG2	*	*
=163	=163	=163
16d`LL	16dd`LL)	.
(16d	(16dd	.
16f#	16ff#	.
16aJJ	16aaJJ	.
16dd`LL>)	16ddd`LL)	.
(16dd	(16ddd	.
16a	16aa	.
16f#JJ	16ff#JJ	.
*clefF4	*	*
=164	=164	=164
16d`LL)	16dd`LL>)	.
(16d	(16dd	.
16A	16a	.
16F#JJ	16f#JJ	.
*	*clefF4	*clefF4
16D`LL)	16d`LL)	.
!!!ONB: Slur missing in LH at this point
16D	(16d	.
16AA	16A	.
16FF#JJ	16F#JJ	.
=165	=165	=165
16DD`LL	16D`LL)	.
(16DD	(16D	.
16FF#	16F#	.
16AAJJ	16AJJ	.
16D`LL)	16d`LL)	.
(16D	(16d	.
16AA	16A	.
16FF#JJ	16F#JJ	.
=166	=166	=166
16DD`LL)	16D`LL)	.
(16DD	(16D	.
16FF#	16F#	.
16AAJJ	16AJJ	.
*	*clefG2	*clefG2
16C`LL)	16c`LL)	.
(16D	(16d	.
16F#	16f#	.
16AJJ	16aJJ	.
*clefG2	*	*
=167	=167	=167
16c`LL)	16cc`LL)	.
(16d	(16dd	.
16f#	16ff#	.
16aJJ	16aaJJ	.
16cc`LL<)	16ccc`LL)	.
(16cc	(16ccc	.
16a	16aa	.
16f#JJ	16ff#JJ	.
*clefF4	*	*
=168	=168	=168
16d`LL)	16dd`LL)	.
(16c	(16cc	.
16A	16a	.
16F#JJ	16f#JJ	.
*	*clefF4	*clefF4
16D`LL)	16d`LL)	.
(16C	(16c	.
16AA	16A	.
16FF#JJ	16F#JJ	.
=169	=169	=169
16DD`LL)	16D`LL)	.
(16DD	(16D	.
16FF#	16F#	.
16AAJJ	16AJJ	.
16C`LL)	16c`LL)	.
16C	16c	.
(16AA	(16A	.
16FF#JJ	16F#JJ	.
=170	=170	=170
4DD)	8.DL)	f
.	[16DJk	.
4F#`	8.DL]	p
.	[16DJk	.
=171	=171	=171
4A`	8.DL]	.
.	[16DJk	.
4c`	8.DL]	.
.	[16DJk	.
*clefG2	*	*
=172	=172	=172
4f#`	8.DL]	.
.	[16DJk	.
4a`	8.DL]	.
.	[16DJk	.
=173	=173	=173
4cc`	8.DL]	.
.	[16DJk	.
4ff#`	8.DL]	.
.	[16DJk	.
*clefF4	*	*
=174	=174	=174
4DD`	8.DL]	f
.	[16DJk	.
4F#` 4A`	8.DL]	p
.	[16DJk	.
=175	=175	=175
4A` 4c`	8.DL]	.
.	[16DJk	.
4c` 4f#`	8.DL]	.
.	[16DJk	.
*clefG2	*	*
=176	=176	=176
4f#` 4a`	8.DL]	.
.	[16DJk	.
4a` 4cc`	8.DL]	.
.	[16DJk	.
=177	=177	=177
4cc` 4ff#`	8.DL]	.
.	[16DJk	.
4ff#` 4aa`	8.DL]	.
.	[16DJk	.
*clefF4	*	*
=178	=178	=178
4DD`	8.DL]	f
.	[16DJk	.
*clefG2	*	*
4A` 4c`	8.DL]	p
.	[16DJk	.
=179	=179	=179
4c` 4f#`	8.DL]	.
.	[16DJk	.
4f#` 4a`	8.DL]	.
.	[16DJk	.
=180	=180	=180
4a` 4cc`	8.DL]	.
.	[16DJk	.
4cc` 4ff#`	8.DL]	.
.	[16DJk	.
=181	=181	=181
4ff#` 4aa`	8.DL]	.
.	[16DJk	.
4aa` 4ccc`	8.DL]	.
.	[16DJk	.
=182	=182	=182
4ccc` 4eee-`	4D]	.
4r	8r	.
.	16r	.
.	[16D [16F# [16A [16c	.
*clefF4	*	*
=183	=183	=183
4DD`	4D] 4F#] 4A] 4c]	.
4r	8r	.
.	16r	.
.	[16D	.
*clefG2	*	*
=184	=184	=184
4ccc` 4eee-`	4D]	.
4r	8r	.
.	16r	.
.	[16D [16F# [16A [16c	.
*clefF4	*	*
=185	=185	=185
4DD`	4D] 4F#] 4A] 4c]	.
4r	8r	.
.	16r	.
.	[16D	.
*clefG2	*	*
=186	=186	=186
4ccc` 4eee-`	4D]	.
4r	8r	.
.	16r	.
.	[16D [16F# [16A [16c	.
*clefF4	*	*
=187	=187	=187
4DD`	4D] 4F#] 4A] 4c]	.
4r	8r	.
.	16r	.
.	[16D [16F# [16A [16c	.
=188	=188	=188
4DD`	4D] 4F#] 4A] 4c]	.
4r	4r	.
=189	=189	=189
2r	4r	.
.	8r	.
.	16r	.
.	[16D [16F# [16A [16c	pp
=190	=190	=190
4E-`	4D] 4F#] 4A] 4c]	pp
4r	4r	.
=191	=191	=191
2r	4r	.
.	8r	.
.	16r	.
.	[16D [16F# [16A [16c	pp
=192	=192	=192
4DD`	4D] 4F#] 4A] 4c]	pp
4r	4r	.
=193	=193	=193
2r	4r	.
*	*clefG2	*clefG2
.	8r	.
.	16r	.
.	[16gg	ff
=194	=194	=194
4GGG` 4GG`	4.gg]	.
4r	.	.
.	16ff#LL	.
.	16eeJJ	.
=195	=195	=195
2r	16ddLL	.
.	16dd#	.
.	16ee	.
.	16bJJ	.
.	16ddnLL	.
.	16cc	.
.	16b	.
.	16aJJ	.
=196	=196	=196
2r	4g	.
.	8r	.
.	16r	.
.	[16B [>16d [16g	p
=197	=197	=197
8GG`\ 8G`\	8.B] 8.d] 8.gL]	.
8r	.	.
.	[16B [>16d [16bJk	.
8GG`\ 8G`\	8.B] 8.d] 8.bL]	.
8r	.	.
.	[16B [>16d [16gJk	.
=198	=198	=198
8GG`\ 8G`\	8B] 8d] 8g]	.
8r	8r	.
4r	8r	.
.	16r	.
.	[16B [>16d [16g	.
=199	=199	=199
8GG`\ 8G`\	8.B] 8.d] 8.gL]	.
8r	.	.
.	[16d [16g [16b [16ddJk	.
8GG`\ 8G`\	8.d] 8.g] 8.b] 8.ddL]	.
8r	.	.
.	[16B [>16d [16gJk	.
=200	=200	=200
8GG`\ 8G`\	8B] 8d] 8g]	.
8r	8r	.
4r	8r	.
.	16r	.
.	[16B [16d [16g [16b	f
=201	=201	=201
8GG`\ 8G`\	8.B] 8.d] 8.g] 8.bL<]	.
8r	.	.
.	[16g [16b [16ee [16ggJk	.
8EE` 8E`	8.g] 8.b] 8.ee] 8.ggL]	.
8r	.	.
.	[16f# [16a [16dd [16ff#Jk	.
=202	=202	=202
8AA` 8A`	8f#] 8a] 8dd] 8ff#]	.
8r	8r	.
4r	4r	.
=203	=203	=203
8AA` 8A`	8f#` 8a` 8dd`	p
8r	8r	.
8AAA` 8AA`	8e` 8g` 8a` 8cc#`	.
8r	8r	.
=204	=204	=204
8DD` 8D`	8d` 8f#` 8a` 8dd`	.
8r	8r	.
4r	8r	.
.	16r	.
.	[16e\ [16a\ [16ccn\ [16ee\	f
=205	=205	=205
8C` 8c`	8.e] 8.a] 8.cc] 8.eeL]	.
8r	.	.
.	[16cc [16ee [16aa [16cccJk	.
8AA` 8A`	8.cc] 8.ee] 8.aa] 8.cccL]	.
8r	.	.
.	[16b [16dd [16gg [16bbJk	.
=206	=206	=206
8D` 8d`	8b] 8dd] 8gg] 8bb]	.
8r	8r	.
4r	4r	.
=207	=207	=207
8D` 8d`	8b` 8dd` 8gg`	p
8r	8r	.
8DD` 8D`	8a` 8dd` 8ff#`	.
8r	8r	.
=208	=208	=208
8GG`\ 8G`\	8b` 8dd` 8gg`	.
8r	8r	.
4r	8r	.
.	16r	.
.	[16e\ [16a\ [16cc\ [16ee\	f
=209	=209	=209
8C` 8c`	8.e] 8.a] 8.cc] 8.eeL]	.
8r	.	.
.	[16cc [16ee [16aa [16cccJk	.
8AA` 8A`	8.cc] 8.ee] 8.aa] 8.cccL]	.
8r	.	.
.	[16b [16dd# [16ff# [16bbJk	.
=210	=210	=210
8BB` 8B`	8b] 8dd#] 8ff#] 8bb]	.
8r	8r	.
4r	4r	.
*clefG2	*	*
=211	=211	=211
8cc`	8ee` 8aa`	p
8r	8r	.
8cc`	8ee` 8aa#`	.
8r	8r	.
=212	=212	=212
8b`	8dd# 8bb	.
8r	8r	.
4r	4r	.
*clefF4	*	*
=213	=213	=213
8c`	8a` 8ee`	.
8r	8r	.
8c	8a#` 8ee`	.
8r	8r	.
=214	=214	=214
8B`	8b` 8dd#`	.
8r	8r	.
4r	4r	.
=215	=215	=215
8CC` 8C`	8A` 8e` 8a`	.
8r	8r	.
8CC` 8C`	8A# 8e 8a#	.
8r	8r	.
=216	=216	=216
8BBB` 8BB`	8B` 8d#` 8b`L	.
!	!LO:TX:i:t=cresc.	!
8r	(16a#L	<
.	16bJJ	.
4r	16a#LL	.
.	16b	.
.	16a#	.
.	16bJJ	.
=217	=217	=217
2r	16a#LL<	.
.	16b	.
.	16a#	.
.	16bJJ	.
.	16a#LL	.
.	16b	.
.	16cc#	.
.	16bJJ	.
=218	=218	=218
8E	8b`)	p
*clefG2	*	*
8B 8e 8g#L	(4gg#	.
8B 8e 8g#	.	.
8B 8e 8g#J	8ff#)	.
*clefF4	*	*
=219	=219	=219
8E	8ee`	.
*clefG2	*	*
8B 8e 8g#L	(4gg#	.
8B 8e 8g#	.	.
8B 8e 8g#J	8ee)	.
*clefF4	*	*
=220	=220	=220
8BB	8dd#	.
*clefG2	*	*
8B 8f# 8aL	4bb	.
8B 8f# 8a	.	.
8B 8f# 8aJ	[8bb	.
*clefF4	*	*
=221	=221	=221
8D#L	(8bbL]	.
*clefG2	*	*
8B 8f# 8aJ	16ccc#L	.
.	16bbJJ	.
*clefF4	*	*
8BBL	16aaLL	.
.	16gg#	.
*clefG2	*	*
8B 8f# 8aJ	16aa	.
.	16ff#JJ)	.
*clefF4	*	*
=222	=222	=222
8E	8ee`	.
*clefG2	*	*
8B 8e 8g#L	(4gg#	.
8B 8e 8g#	.	.
8B 8e 8g#J	8ff#)	.
*clefF4	*	*
=223	=223	=223
8E	8ee`	.
*clefG2	*	*
8B 8e 8g#L	(4gg#	.
8B 8e 8g#	.	.
8B 8e 8g#J	8ee)	.
*clefF4	*	*
=224	=224	=224
8BB	8dd#`L	.
*clefG2	*	*
8B 8f# 8aL	(16ff#L	.
.	16eeJJ	.
8B 8f# 8a	16dd#LL	.
.	16ee	.
8B 8f# 8aJ	16ff#	.
.	16dd#JJ)	.
*clefF4	*	*
=225	=225	=225
16ELL	8ee	.
16e	.	.
16dn	8r	.
16cnJJ	.	.
16BLL	4r	.
16A	.	.
16Gn	.	.
16F#JJ	.	.
=226	=226	=226
8E`	16e 16gnLL	f
.	16b	.
(4G	16e 16g	.
.	16bJJ	.
.	16e 16gLL	.
.	16b	.
8F#)	16e 16g	.
.	16bJJ	.
=227	=227	=227
8E`	16e 16gLL	.
.	16b	.
(4G	16e 16g	.
.	16bJJ	.
.	16e 16gLL	.
.	16b	.
8E)	16e 16g	.
.	16bJJ	.
=228	=228	=228
8D#`	16f# 16aLL	.
.	16b	.
4Bz	16f# 16a	.
.	16bJJ	.
.	16d# 16f#LL	.
.	16b	.
[8B	16d# 16f#	.
.	16bJJ	.
=229	=229	=229
8BL]	16d# 16f#LL	.
.	16b	.
(16cL	16d# 16f#	.
16BJJ	16bJJ	.
16ALL	16d# 16f#LL	.
16G	16b	.
16A	16d# 16f#	.
16F#JJ)	16bJJ	.
=230	=230	=230
!	!LO:TX:i:t=cresc.	!
8E`	16e 16gLL	<
.	16b	.
(4G	16e 16g	.
.	16bJJ	.
.	16e 16gLL	.
.	16b	.
8F#)	16e 16g	.
.	16bJJ	.
=231	=231	=231
8E`	16e 16gLL	.
.	16b	.
4G	16e 16g	.
.	16bJJ	.
.	16e 16g 16b-LL	.
.	16cc#	.
8G	16e 16g 16b-	.
.	16cc#JJ	.
=232	=232	=232
16F#LL	16a 16ccnLL>	.
16A	16dd	.
16G	16a 16cc	.
16BJJ	16ddJJ	.
16ALL	16f# 16aLL>	ff
16c	16dd	.
16B	16f# 16a	.
16dJJ	16ddJJ	.
=233	=233	=233
16cLL	16f# 16aLL>	.
16B	16dd	.
16A	16f# 16a	.
16GJJ	16ddJJ	.
16F#LL	16f# 16aLL>	.
16E	16dd	.
16D	16f# 16a	.
16CJJ	16ddJJ	.
=234	=234	=234
8BBL	8g` 8dd`	.
8G 8B 8dJ	(4bb	p
8GGL	.	.
8G 8B 8dJ	8aa)	.
=235	=235	=235
8GG	8gg`	.
8G 8B 8dL	(4bb	.
8G 8B 8d	.	.
8G 8B 8dJ	8gg)	.
=236	=236	=236
8D	8ff#`	.
8A 8c 8dL	4ddd	.
8A 8c 8d	.	.
8A 8c 8dJ	[8ddd	.
=237	=237	=237
8F#L	(8dddL]	.
8A 8c 8dJ	16eeeL	.
.	16dddJJ	.
8DL	16cccLL	.
.	16bb	.
8A 8c 8dJ	16ccc	.
.	16aaJJ)	.
=238	=238	=238
8GL	8gg`	.
8B 8dJ	(4bb	.
8GGL	.	.
8G 8B 8dJ	8aa)	.
=239	=239	=239
8GG	8gg`	.
8G 8B 8dL	(4bb	.
8G 8B 8d	.	.
8G 8B 8dJ	8gg)	.
=240	=240	=240
8D	8ff#`	.
8A 8c 8dL	(16aaLL	.
.	16ggJJ	.
8A 8c 8d	16ff#LL	.
.	16gg	.
8A 8c 8dJ	16aa	.
.	16ff#JJ)	.
=241	=241	=241
16GGLL	8gg`	.
16G	.	.
16F#	8r	.
16EJJ	.	.
16DLL	4r	.
16C	.	.
16BB	.	.
16AAJJ	.	.
*	*clefF4	*clefF4
=242	=242	=242
8GG`	16G 16BLL	f
.	16d	.
(4BB	16G 16B	.
.	16dJJ	.
.	16G 16BLL	.
.	16d	.
8AA)	16G 16B	.
.	16dJJ	.
=243	=243	=243
8GG`	16G 16BLL	.
.	16d	.
(4BB	16G 16B	.
.	16dJJ	.
.	16G 16BLL	.
.	16d	.
8GG)	16G 16B	.
.	16dJJ	.
=244	=244	=244
8FF#`	16A 16cLL	.
.	16d	.
4Dz>	16A 16c	.
.	16dJJ	.
.	16F# 16ALL	.
.	16d	.
[8D	16F# 16A	.
.	16dJJ	.
=245	=245	=245
(8DL]	16F# 16ALL	.
.	16d	.
16EL	16F# 16A	.
16DJJ	16dJJ	.
16CLL	16F# 16ALL	.
16BB	16d	.
16C	16F# 16A	.
16AAJJ)	16dJJ	.
=246	=246	=246
8GG`	16G 16BLL	.
.	16d	.
4BB	16G 16B	.
.	16dJJ	.
.	16G# 16dLL	.
.	16e#	.
8BB	16G# 16d	.
.	16e#JJ	.
*	*clefG2	*clefG2
=247	=247	=247
8AA#L	16c# 16enLL	sf
.	16f#	.
(16C#L	16c# 16e	.
16BBJJ	16f#JJ	.
16AA#LL	16c# 16eLL	.
16BB	16f#	.
16C#	16c# 16e	.
16AA#JJ)	16f#JJ	.
=248	=248	=248
8BB`	16B 16dLL	.
.	16f#	.
4D/	16B 16d	.
.	16f#JJ	.
.	16B 16fnLL	.
.	16g#	.
8D/	16B 16f	.
.	16g#JJ	.
=249	=249	=249
8C#L>	16e 16gnLL	sf
.	16a	.
(16EL	16e 16g	.
16DJJ	16aJJ	.
16C#LL	16e 16gLL	.
16D	16a	.
16E	16e 16g	.
16C#JJ)	16aJJ	.
=250	=250	=250
8D`	16d 16fnLL	.
.	16a	.
4Fn	16d 16f	.
.	16aJJ	.
.	16d 16fLL	.
.	16a	.
8F	16d 16f	.
.	16aJJ	.
=251	=251	=251
(8Fn	16dLL	.
.	16b	.
4GG)	16g	.
.	16bJJ	.
.	16eLL	.
.	16cc	.
8E	16g	.
.	16ccJJ	.
=252	=252	=252
(8E	16c#LL	.
.	16a#	.
4FF#X)	16f#X	.
.	16a#JJ	.
.	16dLL	.
.	16b	.
8D/	16f#	.
.	16bJJ	.
=253	=253	=253
(8D/	16BLL	.
.	16g#	.
4EE)	16e	.
.	16g#JJ	.
.	16cnLL	.
.	16an	.
8C	16e	.
.	16aJJ	.
=254	=254	=254
*^	*	*
(4.C	8CL	16ALL	.
.	.	16f#	.
.	8DDJ	16d	.
.	.	16f#JJ	.
.	4EE	16GLL	.
.	.	16g	.
8BB)	.	16g	.
.	.	16ggJJ	.
=255	=255	=255	=255
(8BBL	4CC	16eLL	.
.	.	16ee	.
8AA	.	16e	.
.	.	16eeJJ	.
8GG	4DD	16ALL	.
.	.	16a	.
8FF#J)	.	16d	.
.	.	16ddJJ	.
*v	*v	*	*
=256	=256	=256
8GGG 8GG	8G 8g	.
8G 8BL	4b/	p
8G 8B	.	.
8G 8BJ	8b/	.
=257	=257	=257
8FF#	8a#L>	.
8F# 8A# 8c#L	(16cc#L	.
.	16bJJ	.
8F# 8A# 8c#	16a#LL	.
.	16b	.
8F# 8A# 8c#J	16cc#	.
.	16a#JJ)	.
=258	=258	=258
8BB	8b	.
8B 8dL	4dd	.
8B 8d	.	.
8B 8dJ	8dd	.
=259	=259	=259
8AAn	8cc#L	.
8A 8c# 8eL	(16eeL	.
.	16ddJJ	.
8A 8c# 8e	16cc#LL	.
.	16dd	.
8A 8c# 8eJ	16ee	.
.	16cc#JJ	.
=260	=260	=260
8D	8dd)	.
8d 8fnL	4ffn	.
8d 8f	.	.
8d 8fJ	8ff	.
=261	=261	=261
*	*^	*
8BBL	[4ffn	16rg	.
.	.	(16gLL	.
8B 8dJ	.	16f#X	.
.	.	16gJJ)	<
!	!LO:TX:i:t=cresc.	!	!
8CnL	(16ffLL]	[4g	.
.	16ee	.	.
8cn 8eJ	16dd#	.	.
.	16eeJJ)	.	.
=262	=262	=262	=262
8AA#L	[4ee	(16gLL]	.
.	.	16f#X	.
8A# 8c#J	.	16e#	.
.	.	16f#JJ)	.
8BBL	(16eeLL]	[4f#	.
.	16ddn	.	.
8B 8dJ	16cc#	.	.
.	16ddJJ)	.	.
=263	=263	=263	=263
8GG#L	[4dd	(16f#LL]	.
.	.	16en	.
8G# 8BJ	.	16d#	.
.	.	16eJJ)	.
8AAnL	16ddLL]	4e	.
.	16ccn	.	.
8An 8cnJ	16dd	.	.
.	[16ccJJ	.	.
=264	=264	=264	=264
8FF#L<	16ccLL]	8d	f
.	16cc	.	.
8F# 8AJ	16dd	8rc	.
.	16ccJJ	.	.
8GGnL	16dLL	4r	.
.	16b	.	.
8Gn 8BJ	16cc	.	.
.	16bJJ	.	.
=265	=265	=265	=265
8CCL	16eLL	8c	.
.	16a	.	.
8CJ	16b	8rA	.
.	16aJJ	.	.
8DDL	16cLL	8A	.
.	16f#	.	.
8DJ	16g	8rA	.
.	16f#JJ	.	.
=266	=266	=266	=266
*^	*	*	*
8rF	4GG	4g	8r	p
8DL	.	.	8B 8dL	.
8D	4r	8r	8B 8d	.
8DJ	.	(8b	8B 8dJ	.
=267	=267	=267	=267	=267
8DL	2DD	4.a	8c 8dL	.
8D	.	.	8c 8d	.
8D	.	.	8c 8d	.
8DJ	.	8f#)	8c 8dJ	.
=268	=268	=268	=268	=268
8r	4GG	4g	8r	<
8DL	.	.	8B- 8dL	.
8D	4r	8r	8B- 8d	.
8DJ	.	(8b-	8B- 8dJ	[
=269	=269	=269	=269	=269
8DL	2DD	4.a	8c 8dL	>
8D	.	.	8c 8d	.
8D	.	.	8c 8d	.
8DJ	.	8f#	8c 8dJ	]
=270	=270	=270	=270	=270
8r	4GG	4g)	8r	pp
8DL	.	.	8Bn 8dL	.
8D	4r	8r	8B 8d	.
8DJ	.	(8bn	8B 8dJ	.
=271	=271	=271	=271	=271
8DL	2DD	4.a	8c 8dL	.
8D	.	.	8c 8d	.
8D	.	.	8c 8d	.
8DJ	.	8f#)	8c 8dJ	.
=272	=272	=272	=272	=272
8DL	4GG	8gL	8B 8dL	.
!	!	!	!LO:TX:i:a:t=cresc.	!
8D	.	8b	8B 8d	<
8D	4DD	8a	8c 8d	.
8DJ	.	8f#J	8c 8dJ	.
=273	=273	=273	=273	=273
8DL	4GG	8gL	8B 8dL	.
8D	.	8b	8B 8d	.
8D	4DD	8a	8c 8d	.
8DJ	.	8f#J	8c 8dJ	.
=274	=274	=274	=274	=274
8DL	4GG	8gL	8B 8dL	.
8D	.	8b	8B 8d	.
8D	4DD	8a	8c 8d	.
8DJ	.	8f#J	8c 8dJ	.
=275	=275	=275	=275	=275
8DL	4GG	8gL	8B 8dL	.
8D	.	8b	8B 8d	.
8D	4DD	8a	8c 8d	.
8DJ	.	8f#J	8c 8dJ	.
*v	*v	*	*	*
*	*v	*v	*
=276	=276	=276
4GG 4D	4B 4d 4g	p
4r	8r	.
.	16r	.
*	*clefF4	*clefF4
.	[16G [16B [16d	.
=277	=277	=277
4GGG 4GG	4G] 4B] 4d]	.
4r	8r	.
.	16r	.
.	[16D [16G [16B	.
=278	=278	=278
4GGG 4GG	4D] 4G] 4B]	.
4r	4r	.
=279	=279	=279
8BBB	8BB	.
8r	8r	.
8DD	8D	.
*	*clefG2	*clefG2
8r	16r	.
.	[16gg	ff
=280	=280	=280
4GGG` 4GG`	4.gg]	ff
4r	.	.
.	16ff#LL	.
.	16eeJJ	.
=281	=281	=281
2r	16ddLL	.
.	16dd#	.
.	16ee	.
.	16bJJ	.
.	16ddnLL	.
.	16cc	.
.	16b	.
.	16aJJ	.
=282	=282	=282
16GLL	16gLL	.
16A#	16a#	.
16B	16b	.
16F#JJ	16f#JJ	.
16AnLL	16anLL	.
16G	16g	.
16F#	16f#	.
16EJJ	16eJJ	.
=283	=283	=283
16DLL	16dLL	.
16D#	16d#	.
16E	16e	.
16BBJJ	16BJJ	.
16DnLL	16dnLL	.
16C	16c	.
16BB	16B	.
16AAJJ	16AJJ	.
*	*clefF4	*clefF4
=284	=284	=284
16GGLL	16GLL	.
16AA#	16A#	.
16BB	16B	.
16FF#JJ	16F#JJ	.
16AAnLL	16AnLL	.
16GG	16G	.
16FF#	16F#	.
16EEJJ	16EJJ	.
=285	=285	=285
16DDLL	16DLL<	.
16DD#	16D#	.
16EE	16E	.
16BBBJJ	16BBJJ	.
16DDnLL	16DnLL	.
16CC	16C	.
16BBB	16BB	.
16AAAJJ	16AAJJ	.
=286	=286	=286
16GGGLL	16GGLL	.
16FFF#	16FF#	.
16GGG	16GG	.
16AAAJJ	16AAJJ	.
16BBB-LL	16BB-LL	.
16BBBn	16BBn	.
16CC	16C	.
16CC#JJ	16C#JJ	.
=287	=287	=287
16DDLL	16DLL	.
16CC#	16C#	.
16DD	16D	.
16EEJJ	16EJJ	.
16FF#LL	16F#LL	.
16DD	16D	.
16EE	16E	.
16FF#JJ	16F#JJ	.
=288	=288	=288
16GGLL	16GLL	.
16FF#	16F#	.
16GG	16G	.
16AAJJ	16AJJ	.
16BB-LL	16B-LL	.
16BBn	16Bn	.
16C	16c	.
16C#JJ	16c#JJ	.
*	*clefG2	*clefG2
=289	=289	=289
16D`LL	16d`LL	.
(16D	(16d	.
16F#	16f#	.
16AJJ	16aJJ	.
*clefG2	*	*
16d`LL)	16dd`LL)	.
(16d	(16dd	.
16f#	16ff#	.
16aJJ	16aaJJ	.
=290	=290	=290
16dd`LL)	16ddd`LL)	.
(16dd	(16ddd	.
16a	16aa	.
16f#JJ	16ff#JJ	.
*clefF4	*	*
16d`LL)	16dd`LL)	.
(16d	(16dd	.
16A	16a	.
16F#JJ	16f#JJ	.
=291	=291	=291
16D`LL)	16d`LL)	.
(16D	(16d	.
16F#	16f#	.
16AJJ	16aJJ	.
*clefG2	*	*
16d`LL)	16dd`LL)	.
16d	(16dd	.
16f#	16ff#	.
16aJJ	16aaJJ	.
=292	=292	=292
16dd`LL	16ddd`LL)	sf
(16dd	(16ddd	.
16a	16aa	.
16f#JJ	16ff#JJ	.
*clefF4	*	*
16d`LL)	16dd`LL)	.
!!!ONB: Slur in RH is missing at this point
(16d	16dd	.
16A	16a	.
16F#JJ	16f#JJ	.
=293	=293	=293
16D`LL)	16d`LL	.
(16d	(16dd	.
16A	16a	.
16F#JJ	16f#JJ	.
*	*clefF4	*clefF4
16D`LL)	16d`LL)	.
(16D	(16d	.
16AA	16A	.
16FF#JJ)	16F#JJ	.
=294	=294	=294
[2DD	[2D)	sf
=295	=295	=295
4..DD;]	4..D;]	.
*	*clefG2	*clefG2
16r	[16d [>16f# [16a	p
=296	=296	=296
2D 2A 2c	2d] 2f#] 2a]	.
*clefG2	*	*
=297	=297	=297
8a`	8aa`	pp
8r	8r	.
8cc`	8ccc`	.
8r	8r	.
=298	=298	=298
8d`	8dd`	.
8r	8r	.
4r	4r	.
=299	=299	=299
2r	4r	.
.	8r	.
.	16r	.
!!!ONB: add "sempre" before pp
.	[16d [16f# [16a	pp
*clefF4	*	*
=300	=300	=300
2D 2A 2c	4.d] 4.f#] 4.a]	.
.	(24cc#LL	.
.	24dd	.
.	24eeJJ)	.
=301	=301	=301
2r	8dd	.
.	8r	.
.	8r	.
.	16r	.
.	[16B [16d [16g [16b	.
=302	=302	=302
2GG 2BB 2D 2G	4.B] 4.d] 4.g] 4.b]	.
.	(24cc#LL	.
.	24dd	.
.	24eeJJ)	.
=303	=303	=303
2r	8dd	.
.	8r	.
.	8r	.
.	16r	.
.	[16d [>16f# [16ccn	.
=304	=304	=304
8D` 8A` 8c`	4d_ 4f#_ 4cc_	.
8r	.	.
4r	8.d] 8.f#] 8.ccL<]	.
.	[16f# [16cc [16ff#Jk	.
=305	=305	=305
8DD` 8D`	4f#_ 4cc_ 4ff#_	.
8r	.	.
4r	8.f#] 8.cc] 8.ff#L]	.
.	[16g [16b [16ggJk	.
=306	=306	=306
8GG`\ 8G`\	8g`] 8b`] 8gg`]	.
8r	8r	.
8GG`\ 8G`\	8B` 8d` 8g`	.
8r	8r	.
=307	=307	=307
2r	4r	.
.	8r	.
.	16r	.
.	[16d [>16f# [16a	.
=308	=308	=308
2D 2A 2c	4.d] 4.f#] 4.a]	.
.	(24ddLL	.
.	24ff#	.
.	24aaJJ)	.
=309	=309	=309
2r	8ddd	.
.	8r	.
.	8r	.
.	16r	.
.	[16B [16d [16g [16b	.
=310	=310	=310
2GG 2BB 2D 2G	4.B] 4.d] 4.g] 4.b]	.
.	(24ddLL	.
.	24gg	.
.	24bbJJ)	.
=311	=311	=311
2r	8ddd	.
.	8r	.
.	8r	.
.	16r	.
.	[16d [>16f# [16cc	.
=312	=312	=312
8D` 8A` 8c`	4d_ 4f#_> 4cc_	.
8r	.	.
4r	8.d] 8.f#] 8.ccL]	.
.	[16f# [>16cc [16ff#Jk	.
=313	=313	=313
8DD` 8D`	4f#_ 4cc_ 4ff#_	.
8r	.	.
4r	8.f#] 8.cc] 8.ff#L]	.
.	[16g [16b [16ggJk	.
=314	=314	=314
8GG`\ 8G`\	8g`] 8b`] 8gg`]	.
8r	8r	.
8GG`\ 8G`\	8B` 8d` 8g`	.
8r	8r	.
=315	=315	=315
2r	4r	.
.	8r	.
.	16r	.
.	[16d [>16f# [16cc	pp
=316	=316	=316
8D` 8A` 8c`	4d_ 4f#_> 4cc_	.
8r	.	.
4r	8.d] 8.f#] 8.ccL]	.
.	[16a [16ff# [16aaJk	.
=317	=317	=317
8DD` 8D`	4a_ 4ff#_ 4aa_	.
8r	.	.
4r	8.a] 8.ff#] 8.aaL]	.
.	[16b [16gg [16bbJk	.
=318	=318	=318
8GG`\ 8G`\	8b`] 8gg`] 8bb`]	.
8r	8r	.
8GG`\ 8G`\	8B 8d 8g 8b	.
8r	8r	.
=319	=319	=319
2r	4r	.
.	8r	.
.	16r	.
.	[16d [16a [16cc [16dd	ff
=320	=320	=320
8D` 8A` 8c`	4d_ 4a_ 4cc_ 4dd_	.
8r	.	.
4r	8.d] 8.a] 8.cc] 8.ddL]	.
.	[16dd [16ff# [16aa [16dddJk	.
=321	=321	=321
8DD` 8D`	4dd_ 4ff#_ 4aa_ 4ddd_	.
8r	.	.
4r	8.dd] 8.ff#] 8.aa] 8.dddL]	.
.	[16b [16dd [16gg [16bbJk	.
=322	=322	=322
8GG`\ 8G`\	8b`] 8dd`] 8gg`] 8bb`]	.
8r	8r	.
8GG`\ 8G`\	8B`	.
8r	8r	.
=323	=323	=323
2r	2r	.
=324	=324	=324
8GGG` 8GG`	8g` 8b` 8dd` 8gg`	p
8r	8r	.
*	*clefF4	*clefF4
8GGG` 8GG`	8BB` 8D` 8G`	.
8r	8r	.
=325	=325	=325
4r	4r	.
8r	8r	.
16r;	16r;	.
==	==	==
*-	*-	*-
!!!RDF**kern: > = above
!!!RDF**kern: < = below
!!!ENC: Craig Stuart Sapp
!!!END: 2004/11/21
!!!EED: Craig Stuart Sapp
!!!EEV: 2018/06/24
